X:161
T: Murr nur nit!
N: A0199
O: Europa, Mitteleuropa, Deutschland
N: Peter Schoeffer 1513 No. 4.
R: Romanze, Ballade, Lied
M: 3/2
L: 1/2
K: C
c2cc | GGAB | c2z
cBA | d2Bc | A2G2
c2cc | GGAB | c2z
cBA | d2Bc | A2G
E | FFEG | Ac2B | c2z
c | BcA2 | G2
c | c2c | c2c | A2A | GF2 | E2

